assets/icons/icon_blades_v2.svg

<svg width="30" height="30" viewBox="0 0 30 30" fill="none" xmlns="http://www.w3.org/2000/svg">
<g clip-path="url(#clip0_2047_828)">
<path d="M15 13.5333C15.2901 13.5333 15.5736 13.6194 15.8148 13.7805C16.056 13.9417 16.244 14.1707 16.355 14.4387C16.466 14.7067 16.4951 15.0016 16.4385 15.2861C16.3819 15.5706 16.2422 15.832 16.0371 16.0371C15.832 16.2422 15.5706 16.3819 15.2861 16.4385C15.0016 16.4951 14.7067 16.466 14.4387 16.355C14.1707 16.244 13.9417 16.056 13.7805 15.8148C13.6194 15.5736 13.5333 15.2901 13.5333 15C13.5326 14.8072 13.57 14.6161 13.6435 14.4379C13.7169 14.2596 13.8249 14.0976 13.9612 13.9612C14.0976 13.8249 14.2596 13.7169 14.4379 13.6435C14.6161 13.57 14.8072 13.5326 15 13.5333Z" fill="white"/>
<path d="M15 5.46667C13.1145 5.46667 11.2713 6.02579 9.70357 7.07333C8.13582 8.12086 6.91391 9.60977 6.19235 11.3518C5.4708 13.0937 5.28201 15.0106 5.64985 16.8599C6.0177 18.7092 6.92566 20.4078 8.25892 21.7411C9.59218 23.0744 11.2909 23.9823 13.1401 24.3502C14.9894 24.718 16.9063 24.5292 18.6483 23.8077C20.3902 23.0861 21.8791 21.8642 22.9267 20.2964C23.9742 18.7287 24.5333 16.8855 24.5333 15C24.5304 12.4725 23.525 10.0494 21.7378 8.26222C19.9506 6.47502 17.5275 5.46966 15 5.46667ZM15 26C12.8244 26 10.6977 25.3549 8.88873 24.1462C7.07979 22.9375 5.66989 21.2195 4.83733 19.2095C4.00477 17.1995 3.78693 14.9878 4.21137 12.854C4.6358 10.7202 5.68345 8.76021 7.22183 7.22183C8.76021 5.68345 10.7202 4.6358 12.854 4.21137C14.9878 3.78693 17.1995 4.00477 19.2095 4.83733C21.2195 5.66989 22.9375 7.07979 24.1462 8.88873C25.3549 10.6977 26 12.8244 26 15C25.9955 17.916 24.8352 20.7113 22.7732 22.7732C20.7113 24.8352 17.916 25.9955 15 26Z" fill="white"/>
<path d="M8.51288 16.9743L13.7647 17.059L16.4611 21.5718L17.1888 21.3743L17.2734 16.1282L21.7862 13.4261L21.5944 12.7041L16.3426 12.6138L13.6462 8.10101L12.9185 8.29281L12.8226 13.5897L8.3098 16.2918L8.51288 16.9743ZM15.7447 23.3543L12.8903 18.5877L7.33955 18.4974L6.5498 15.5528L11.3334 12.6928L11.4237 7.14204L14.3739 6.35229L17.2283 11.1133L22.779 11.2092L23.5519 14.1538L18.7852 17.0082L18.6949 22.5646L15.7447 23.3543Z" fill="white"/>
</g>
<defs>
<clipPath id="clip0_2047_828">
<rect width="22" height="22" fill="white" transform="translate(4 4)"/>
</clipPath>
</defs>
</svg>

<svg xmlns="http://www.w3.org/2000/svg" width="30" height="30" fill="none" viewBox="0 0 30 30"><g fill="#fff" clip-path="url(#a)"><path d="M15 13.533a1.467 1.467 0 1 1 0 2.934 1.467 1.467 0 0 1 0-2.934"/><path d="M15 5.467A9.533 9.533 0 1 0 24.533 15 9.544 9.544 0 0 0 15 5.467M15 26a11 11 0 1 1 11-11 11.017 11.017 0 0 1-11 11"/><path d="m8.513 16.974 5.252.085 2.696 4.513.728-.198.084-5.246 4.513-2.702-.192-.722-5.251-.09L13.646 8.1l-.728.192-.095 5.297-4.513 2.702zm7.232 6.38-2.855-4.766-5.55-.09-.79-2.945 4.783-2.86.09-5.551 2.95-.79 2.855 4.761 5.551.096.773 2.945-4.767 2.854-.09 5.557z"/></g><defs><clipPath id="a"><path fill="#fff" d="M4 4h22v22H4z"/></clipPath></defs></svg>
